public/icons/footer-logo.svg

<svg width="172" height="28" viewBox="0 0 172 28" fill="none" xmlns="http://www.w3.org/2000/svg">
<g clip-path="url(#clip0_3001_15609)">
<path d="M18.193 19.7567C18.193 21.1668 17.8372 22.5014 17.1269 23.7633C16.4166 25.0252 15.3121 26.0464 13.8134 26.8281C12.3147 27.6099 10.3809 28.0001 8.01313 28.0001C6.82794 28.0001 5.78958 27.9472 4.8954 27.84C4.00122 27.7329 3.16921 27.5583 2.39937 27.3162C1.62953 27.0742 0.829263 26.7567 0.0012207 26.3652V20.1112C1.40995 20.8215 2.83191 21.3638 4.26577 21.7369C5.69831 22.1099 6.99593 22.2964 8.15731 22.2964C8.85572 22.2964 9.42715 22.2131 9.87159 22.0477C10.316 21.8824 10.6441 21.6535 10.857 21.3638C11.07 21.0742 11.1771 20.7395 11.1771 20.3599C11.1771 19.9101 11.0197 19.5279 10.7063 19.2144C10.3928 18.9009 9.89143 18.5715 9.20493 18.2289C8.51842 17.885 7.61233 17.4591 6.48667 16.9498C5.52768 16.5001 4.65995 16.0385 3.8835 15.5636C3.10704 15.09 2.44434 14.5477 1.89408 13.9379C1.34381 13.3281 0.91921 12.6138 0.624237 11.7964C0.32794 10.9789 0.179792 10.0133 0.179792 8.90089C0.179792 7.23025 0.591168 5.83078 1.41392 4.6985C2.23667 3.56755 3.38614 2.71702 4.86101 2.14956C6.33588 1.58078 8.03826 1.29639 9.96948 1.29639C11.6626 1.29639 13.1877 1.48554 14.5449 1.86517C15.9007 2.2448 17.1176 2.67602 18.1957 3.16279L16.0462 8.5821C14.9324 8.07284 13.8372 7.66676 12.7592 7.36517C11.6811 7.06358 10.6798 6.91147 9.75651 6.91147C9.15202 6.91147 8.65731 6.98554 8.27239 7.13369C7.88747 7.28184 7.60307 7.48025 7.41921 7.72893C7.23535 7.9776 7.14408 8.262 7.14408 8.5821C7.14408 8.98554 7.30149 9.34665 7.61498 9.66544C7.92847 9.98554 8.45625 10.3321 9.19567 10.7051C9.93641 11.0781 10.9457 11.5609 12.2248 12.1535C13.492 12.7223 14.57 13.3347 15.4589 13.9922C16.3478 14.6496 17.025 15.4379 17.4933 16.3546C17.9615 17.2726 18.1957 18.4062 18.1957 19.7567H18.193Z" fill="white"/>
<path d="M30.861 7.16016C32.8147 7.16016 34.5025 7.50143 35.9245 8.18132C37.3465 8.86254 38.4417 9.8837 39.2115 11.2461C39.9814 12.6086 40.3663 14.3136 40.3663 16.3625V19.4538H27.947C28.0065 20.508 28.4007 21.3731 29.1282 22.0477C29.857 22.7223 30.9311 23.061 32.3531 23.061C33.6084 23.061 34.7605 22.9366 35.8081 22.6879C36.8557 22.4393 37.9364 22.0543 39.0502 21.5332V26.5252C38.0793 27.0345 37.0184 27.4075 35.8703 27.6443C34.7208 27.8811 33.2697 28.0001 31.5171 28.0001C29.492 28.0001 27.6798 27.639 26.0806 26.9168C24.4814 26.1945 23.2234 25.0755 22.3055 23.5583C21.3875 22.0424 20.9285 20.094 20.9285 17.7131C20.9285 15.3321 21.3425 13.3096 22.1719 11.7527C23.0012 10.1959 24.1613 9.04111 25.6547 8.28846C27.1467 7.53582 28.8822 7.16016 30.8597 7.16016H30.861ZM31.1097 11.8863C30.2922 11.8863 29.6084 12.1443 29.0581 12.6588C28.5078 13.1747 28.1851 13.9829 28.0898 15.0834H34.0594C34.0475 14.4908 33.9285 13.9525 33.7036 13.467C33.4787 12.9816 33.1494 12.5967 32.7182 12.3123C32.2856 12.0279 31.7499 11.8863 31.1097 11.8863Z" fill="white"/>
<path d="M51.2393 27.6455H44.2922V0H51.2393V27.6455Z" fill="white"/>
<path d="M63.0013 27.6455H56.0542V0H63.0013V27.6455Z" fill="white"/>
<path d="M79.7896 7.05286C78.9603 7.05286 78.2195 7.22746 77.5687 7.57667C76.9166 7.92587 76.3611 8.43249 75.8981 9.09519C75.4365 9.75921 75.0833 10.5674 74.8412 11.5198C74.5978 12.4735 74.4775 13.5542 74.4775 14.7619C74.4775 16.3968 74.6851 17.7711 75.0992 18.8835C75.5132 19.9973 76.1441 20.8373 76.9907 21.406C77.8373 21.9748 78.9007 22.2592 80.1798 22.2592C81.3399 22.2592 82.4563 22.0992 83.5291 21.7791C84.6005 21.4589 85.6812 21.074 86.7711 20.6243V26.5582C85.6216 27.0674 84.4471 27.4351 83.2447 27.66C82.0423 27.8849 80.7658 27.9973 79.4153 27.9973C76.5965 27.9973 74.2896 27.4378 72.4947 26.3187C70.6997 25.1997 69.3796 23.6455 68.533 21.6547C67.6865 19.6653 67.2632 17.3558 67.2632 14.7261C67.2632 12.7605 67.5383 10.9589 68.0899 9.32535C68.6402 7.69043 69.4497 6.27244 70.5145 5.07005C71.5806 3.86767 72.8981 2.93778 74.4682 2.28037C76.037 1.62296 77.8346 1.29492 79.8611 1.29492C81.1164 1.29492 82.4404 1.44042 83.832 1.73011C85.2235 2.02111 86.5833 2.4854 87.91 3.12429L85.7605 8.64942C84.8134 8.19968 83.8531 7.82006 82.8822 7.51185C81.9113 7.20365 80.8809 7.05021 79.791 7.05021L79.7896 7.05286Z" fill="white"/>
<path d="M103.579 7.16016C103.958 7.16016 104.354 7.18661 104.77 7.23952C105.184 7.29243 105.492 7.33741 105.693 7.37312L105.071 13.9287C104.847 13.8692 104.556 13.8189 104.201 13.7779C103.845 13.7369 103.348 13.7157 102.709 13.7157C102.271 13.7157 101.803 13.7567 101.306 13.8401C100.808 13.9234 100.337 14.098 99.8929 14.3639C99.4484 14.6297 99.0847 15.0332 98.8003 15.5715C98.5159 16.1112 98.3743 16.8361 98.3743 17.7475V27.643H91.4272V7.51598H96.5979L97.6812 10.7316H98.0185C98.3849 10.0689 98.8558 9.46704 99.4312 8.92868C100.005 8.39032 100.651 7.96042 101.368 7.64031C102.085 7.32021 102.821 7.16016 103.579 7.16016Z" fill="white"/>
<path d="M117.562 7.16016C119.516 7.16016 121.204 7.50143 122.626 8.18132C124.048 8.86254 125.143 9.8837 125.913 11.2461C126.683 12.6086 127.067 14.3136 127.067 16.3625V19.4538H114.648C114.708 20.508 115.102 21.3731 115.829 22.0477C116.558 22.7223 117.632 23.061 119.054 23.061C120.31 23.061 121.462 22.9366 122.509 22.6879C123.557 22.4393 124.638 22.0543 125.751 21.5332V26.5252C124.78 27.0345 123.72 27.4075 122.571 27.6443C121.422 27.8811 119.971 28.0001 118.218 28.0001C116.193 28.0001 114.381 27.639 112.782 26.9168C111.183 26.1945 109.925 25.0755 109.007 23.5583C108.089 22.0424 107.63 20.094 107.63 17.7131C107.63 15.3321 108.044 13.3096 108.873 11.7527C109.702 10.1959 110.862 9.04111 112.356 8.28846C113.848 7.53582 115.583 7.16016 117.561 7.16016H117.562ZM117.811 11.8863C116.993 11.8863 116.31 12.1443 115.759 12.6588C115.209 13.1747 114.886 13.9829 114.791 15.0834H120.761C120.749 14.4908 120.63 13.9525 120.405 13.467C120.18 12.9816 119.851 12.5967 119.419 12.3123C118.987 12.0279 118.451 11.8863 117.811 11.8863Z" fill="white"/>
<path d="M140.819 7.16016C143.365 7.16016 145.354 7.79111 146.788 9.05169C148.221 10.3136 148.938 12.1112 148.938 14.4445V27.6456H144.123L142.791 24.9803H142.649C142.081 25.6906 141.497 26.2686 140.899 26.7131C140.302 27.1575 139.618 27.4829 138.848 27.6906C138.078 27.8983 137.136 28.0014 136.022 28.0014C134.909 28.0014 133.819 27.7647 132.896 27.2911C131.972 26.8176 131.243 26.1006 130.71 25.1416C130.177 24.1826 129.911 22.9684 129.911 21.5001C129.911 19.344 130.657 17.7461 132.149 16.7025C133.642 15.6602 135.803 15.0742 138.635 14.9432L141.993 14.8361V14.5517C141.993 13.6522 141.771 13.012 141.327 12.6324C140.882 12.2541 140.287 12.0636 139.541 12.0636C138.747 12.0636 137.862 12.2025 136.885 12.4816C135.907 12.7607 134.927 13.1178 133.944 13.557L131.937 8.97365C133.097 8.38106 134.411 7.93132 135.881 7.62312C137.349 7.31492 138.996 7.16148 140.82 7.16148L140.819 7.16016ZM142.028 18.6549L140.429 18.7263C139.149 18.7739 138.253 18.9961 137.737 19.393C137.221 19.7898 136.964 20.3559 136.964 21.0901C136.964 21.7766 137.148 22.2832 137.515 22.6086C137.881 22.934 138.368 23.0967 138.971 23.0967C139.812 23.0967 140.532 22.8308 141.13 22.2977C141.728 21.7647 142.026 21.0715 142.026 20.2184V18.6549H142.028Z" fill="white"/>
<path d="M161.997 1.29761C163.714 1.29761 165.222 1.52909 166.518 1.99073C167.816 2.45237 168.831 3.15475 169.566 4.09655C170.3 5.03835 170.668 6.21957 170.668 7.64152C170.668 8.68385 170.475 9.5992 170.09 10.3862C169.705 11.1746 169.177 11.8611 168.509 12.4471C167.84 13.0331 167.067 13.5397 166.19 13.9656C167.008 14.4272 167.819 14.9669 168.624 15.582C169.43 16.1984 170.099 16.9233 170.632 17.7579C171.165 18.5926 171.431 19.5846 171.431 20.7341C171.431 22.1204 171.094 23.3611 170.418 24.4563C169.743 25.5516 168.706 26.4167 167.308 27.0503C165.91 27.6839 164.116 28.0013 161.924 28.0013C159.733 28.0013 157.939 27.6997 156.541 27.0952C155.143 26.4907 154.116 25.6468 153.459 24.5635C152.801 23.4802 152.473 22.2275 152.473 20.8055C152.473 19.5979 152.677 18.5794 153.086 17.75C153.495 16.9206 154.054 16.2156 154.764 15.6362C155.475 15.0555 156.286 14.5344 157.198 14.0727C156.476 13.5873 155.812 13.037 155.209 12.4206C154.604 11.8055 154.126 11.1005 153.77 10.3069C153.414 9.51322 153.237 8.61375 153.237 7.60581C153.237 6.20898 153.61 5.04099 154.356 4.10581C155.102 3.17062 156.135 2.46824 157.456 1.99999C158.776 1.53173 160.29 1.29761 161.996 1.29761H161.997ZM158.906 20.5212C158.906 21.2434 159.167 21.8307 159.688 22.2804C160.209 22.7302 160.931 22.955 161.856 22.955C162.934 22.955 163.723 22.7513 164.227 22.3426C164.73 21.9339 164.983 21.3743 164.983 20.664C164.983 20.1309 164.825 19.6481 164.512 19.2156C164.198 18.7831 163.833 18.4074 163.419 18.0873C163.004 17.7672 162.643 17.5185 162.336 17.3413L161.856 17.0569C161.323 17.3294 160.835 17.6349 160.39 17.9722C159.946 18.3095 159.587 18.6891 159.315 19.1098C159.042 19.5304 158.906 20.0013 158.906 20.5225V20.5212ZM161.961 6.3611C161.381 6.3611 160.878 6.53041 160.451 6.86771C160.025 7.20502 159.811 7.66401 159.811 8.2447C159.811 8.62433 159.902 8.97618 160.086 9.30158C160.27 9.62697 160.518 9.92592 160.832 10.1984C161.145 10.4709 161.499 10.7196 161.889 10.9444C162.233 10.7434 162.57 10.5238 162.902 10.287C163.234 10.0503 163.512 9.76586 163.737 9.43385C163.961 9.10184 164.074 8.70502 164.074 8.24338C164.074 7.66269 163.864 7.20369 163.443 6.86639C163.022 6.52909 162.528 6.35978 161.959 6.35978L161.961 6.3611Z" fill="white"/>
</g>
<defs>
<clipPath id="clip0_3001_15609">
<rect width="171.431" height="28" fill="white"/>
</clipPath>
</defs>
</svg>

<svg xmlns="http://www.w3.org/2000/svg" width="172" height="28" fill="none"><g fill="#fff" clip-path="url(#a)"><path d="M18.193 19.757q0 2.114-1.066 4.006-1.065 1.893-3.314 3.065T8.013 28a27 27 0 0 1-3.118-.16 14 14 0 0 1-2.496-.524q-1.155-.364-2.398-.95V20.11q2.113 1.066 4.265 1.626 2.149.56 3.891.56 1.048 0 1.715-.25.666-.248.985-.683.32-.435.32-1.004 0-.675-.47-1.146-.472-.47-1.502-.985a80 80 0 0 0-2.718-1.28 27 27 0 0 1-2.603-1.385 8.9 8.9 0 0 1-1.99-1.626 6.4 6.4 0 0 1-1.27-2.142Q.18 10.57.18 8.901q0-2.504 1.234-4.202t3.447-2.55q2.212-.852 5.108-.853 2.54 0 4.576.57 2.034.567 3.65 1.297l-2.149 5.42a22.5 22.5 0 0 0-3.287-1.218q-1.618-.453-3.002-.454-.908 0-1.485.223-.577.222-.853.595a1.4 1.4 0 0 0-.275.853q0 .606.471 1.083.47.48 1.58 1.04t3.03 1.448q1.9.854 3.234 1.84 1.333.986 2.034 2.362.703 1.376.703 3.402zM30.861 7.16q2.93 0 5.064 1.021a7.3 7.3 0 0 1 3.287 3.065q1.154 2.044 1.154 5.117v3.09H27.947q.09 1.583 1.181 2.595 1.093 1.012 3.225 1.013 1.883 0 3.455-.373a17 17 0 0 0 3.242-1.155v4.992q-1.456.765-3.18 1.12-1.724.354-4.353.355-3.037 0-5.436-1.083t-3.776-3.359q-1.376-2.274-1.376-5.845c0-2.38.414-4.403 1.243-5.96q1.244-2.335 3.483-3.465Q27.893 7.16 30.86 7.16zm.249 4.726q-1.227 0-2.052.773-.825.774-.968 2.424h5.97a4 4 0 0 0-.356-1.616 2.73 2.73 0 0 0-.986-1.155q-.648-.426-1.608-.426M51.24 27.646h-6.948V0h6.947zM63.001 27.646h-6.947V0h6.947zM79.79 7.053q-1.245 0-2.221.524-.977.524-1.67 1.518-.695.996-1.058 2.425-.364 1.43-.363 3.242 0 2.453.621 4.122t1.892 2.522 3.189.853q1.74 0 3.35-.48a34 34 0 0 0 3.241-1.155v5.934q-1.724.765-3.526 1.102a21 21 0 0 1-3.83.337q-4.227 0-6.92-1.678-2.692-1.68-3.962-4.664t-1.27-6.929q0-2.95.827-5.4.826-2.453 2.424-4.256 1.6-1.803 3.954-2.79 2.354-.985 5.393-.985 1.883 0 3.971.435 2.088.436 4.078 1.394L85.76 8.65q-1.421-.675-2.878-1.137a10.2 10.2 0 0 0-3.091-.462zM103.579 7.16q.568 0 1.191.08.621.079.923.133l-.622 6.556a6 6 0 0 0-.87-.151 14 14 0 0 0-1.492-.062q-.657-.001-1.403.124a4 4 0 0 0-1.413.524q-.666.4-1.093 1.207-.426.81-.426 2.176v9.896h-6.947V7.516h5.17l1.084 3.216h.338a7.3 7.3 0 0 1 1.412-1.803 7 7 0 0 1 1.937-1.289 5.4 5.4 0 0 1 2.211-.48M117.562 7.16q2.931 0 5.064 1.021a7.3 7.3 0 0 1 3.287 3.065q1.154 2.044 1.154 5.117v3.09h-12.419q.09 1.583 1.181 2.595 1.093 1.012 3.225 1.013 1.884 0 3.455-.373a17 17 0 0 0 3.242-1.155v4.992q-1.457.765-3.18 1.12-1.724.354-4.353.355-3.038 0-5.436-1.083t-3.775-3.359q-1.377-2.274-1.377-5.845c0-2.38.414-4.403 1.243-5.96q1.243-2.335 3.483-3.465 2.238-1.128 5.205-1.128zm.249 4.726q-1.226 0-2.052.773-.825.774-.968 2.424h5.97a4 4 0 0 0-.356-1.616 2.7 2.7 0 0 0-.986-1.155q-.648-.426-1.608-.426M140.819 7.16q3.819 0 5.969 1.892 2.15 1.893 2.15 5.393v13.2h-4.815l-1.332-2.665h-.142q-.853 1.066-1.75 1.733a6 6 0 0 1-2.051.978q-1.155.31-2.826.31c-1.113 0-2.203-.236-3.126-.71q-1.386-.71-2.186-2.15-.8-1.438-.799-3.64 0-3.234 2.238-4.799 2.239-1.563 6.486-1.759l3.358-.107v-.284q0-1.35-.666-1.92-.667-.567-1.786-.568-1.19 0-2.656.418t-2.941 1.075l-2.007-4.583q1.74-.89 3.944-1.35 2.203-.464 4.939-.463zm1.209 11.495-1.599.071q-1.919.072-2.692.667t-.773 1.697q0 1.03.551 1.519.55.488 1.456.488 1.262 0 2.159-.8.897-.799.896-2.079v-1.563zM161.997 1.298q2.576 0 4.521.693 1.946.692 3.048 2.106 1.102 1.412 1.102 3.545 0 1.563-.578 2.744a6.5 6.5 0 0 1-1.581 2.061 10.4 10.4 0 0 1-2.319 1.519 21 21 0 0 1 2.434 1.616 8.5 8.5 0 0 1 2.008 2.176q.8 1.252.799 2.976 0 2.08-1.013 3.722-1.013 1.643-3.11 2.594t-5.384.951-5.383-.906-3.082-2.531-.986-3.759q0-1.811.613-3.055a6.3 6.3 0 0 1 1.678-2.114 13.4 13.4 0 0 1 2.434-1.563 12.6 12.6 0 0 1-1.989-1.652 7.2 7.2 0 0 1-1.439-2.114q-.533-1.19-.533-2.701 0-2.096 1.119-3.5t3.1-2.106q1.98-.702 4.54-.702zm-3.091 19.223q0 1.084.782 1.76.781.675 2.168.674 1.616 0 2.371-.612.755-.615.756-1.679 0-.8-.471-1.448a5.5 5.5 0 0 0-1.093-1.129q-.623-.48-1.083-.746l-.48-.284a10 10 0 0 0-1.466.915 4.5 4.5 0 0 0-1.075 1.138q-.41.63-.409 1.413zm3.055-14.16q-.87 0-1.51.507-.64.506-.64 1.377 0 .569.275 1.057t.746.896q.47.41 1.057.746.515-.3 1.013-.657.498-.355.835-.853t.337-1.19q0-.871-.631-1.378a2.3 2.3 0 0 0-1.484-.506z"/></g><defs><clipPath id="a"><path fill="#fff" d="M0 0h171.431v28H0z"/></clipPath></defs></svg>
